!!!COM:	Bach, Johann Sebastian
!!!CDT:	1685/02/21/-1750/07/28/
!!!OTL@@DE:	Es ist das Heil uns kommen her
!!!SCT:	BWV 155/5
!!!PC#:	335
!!!AGN:	chorale
**kern	**kern	**kern	**kern
*ICvox	*ICvox	*ICvox	*ICvox
*Ibass	*Itenor	*Ialto	*Isoprn
*I"Bass	*I"Tenor	*I"Alto	*I"Soprano
*>[A,A,B]	*>[A,A,B]	*>[A,A,B]	*>[A,A,B]
*>norep[A,B]	*>norep[A,B]	*>norep[A,B]	*>norep[A,B]
*>A	*>A	*>A	*>A
*	*oclefC4	*oclefC3	*oclefC1
*clefF4	*clefGv2	*clefG2	*clefG2
*k[b-]	*k[b-]	*k[b-]	*k[b-]
*F:	*F:	*F:	*F:
*M4/4	*M4/4	*M4/4	*M4/4
*met(c)	*met(c)	*met(c)	*met(c)
*MM100	*MM100	*MM100	*MM100
4F	8AL	4f	4cc
.	8B-J	.	.
=1	=1	=1	=1
8AAL	8cL	4f	4cc
8BB-J	8dJ	.	.
4C	8cL	4e	4cc
.	8B-J	.	.
4FF	4A	4f	8ccL
.	.	.	8ddJ
4C	8GL	4g	4ee-
.	8AJ	.	.
=2	=2	=2	=2
8DL	4B-	4f	4dd
8E-J	.	.	.
4F	4A	8fL	4cc
.	.	8e-J	.
4G;	4B-;	4d;	4b-;
4E	4G	4c	8ccL
.	.	.	8b-J
=3	=3	=3	=3
4F	8FL	4c	8aL
.	8GJ	.	8gJ
4FF	8AL	4c	8fL
.	8B-J	.	8gJ
8FL	4c	8fL	4a
8EJ	.	8aJ	.
4D	4d	8gL	4b
.	.	8fJ	.
=4	=4	=4	=4
4C	8G	8.eL	8.ccL
.	4c	.	.
.	.	16fJk	16ddJk
4GG	.	8.gL	4dd
.	8B	.	.
.	.	16fJk	.
4C;	4c;	4e;	4cc;
=:|!	=:|!	=:|!	=:|!
*>B	*>B	*>B	*>B
8FL	4A	8fL	4cc
8EJ	.	8gJ	.
=5	=5	=5	=5
4D	8AL	4a	4ff
.	8BJ	.	.
8EL	4c	4g	4ee
8FJ	.	.	.
4G	8BL	8gL	4dd
.	8AJ	8fJ	.
8CL	4G	8eL	4ee
8BBnXJ	.	8gJ	.
=6	=6	=6	=6
8AAL	8FL	8cL	8ffL
8GGJ	8cJ	8aJ	8eeJ
4GG	4B	8dL	4dd
.	.	8gJ	.
4C;	4c;	4e;	4cc;
4F	8AL	8fL	4cc
.	8B-J	8gJ	.
=7	=7	=7	=7
8FFL	4c	8aL	4ff
8GGJ	.	8b-J	.
4AA	8fL	8aL	4cc
.	8eJ	8gJ	.
8BB-L	4d	4f	4dd
8CJ	.	.	.
4D	4d	4f	8aL
.	.	.	8b-J
=8	=8	=8	=8
8EL	8GL	4e	4cc
8F#J	8AJ	.	.
4G	8B-L	8dL	4b-
.	8cJ	8eJ	.
4D;	4d;	4f#;	4a;
8AAL	4c	4f	4a
8BB-J	.	.	.
=9	=9	=9	=9
4C	4c	4e	8gL
.	.	.	8aJ
8DL	8FnXL	4d	4b-
8EJ	8GJ	.	.
4F	8AL	8cL	4a
.	8B-J	8dJ	.
8EL	4c	4e	4g
8FJ	.	.	.
=10	=10	=10	=10
4G	8B-L	4d	4d
.	8AJ	.	.
4C	4G	8cL	4e
.	.	8B-J	.
4FF;	4F;	4A;	4f;
==	==	==	==
*-	*-	*-	*-
!!!YOR1: 371 vierstimmige Choralges&auml;nge von Johann Sebastian Bach, 
!!!YOR2: 4th ed. by Alfred D&ouml;rffel (Leipzig: Breitkopf und H&auml;rtel, 
!!!YOR2: c.1875). 178 pp. Plate "V.A.10".  reprint: J.S. Bach, 371 Four-Part 
!!!YOR4: Chorales (New York: Associated Music Publishers, Inc., c.1940).
!!!SMS: B&H, 4th ed, Alfred D&ouml;rffel, c.1875, plate V.A.10
!!!EED:  Craig Stuart Sapp
!!!EEV:  2009/05/22
